!!!ONB: MCCC : IWM0406_02 : Extracted Monophonic Melody
!!!COM: Mozart, Wolfgang Amadeus
!!!OPR: Piano Sonata No.6
!!!OMV: 2
!!!SCT: K.284 ; K⁶.205b ; Op. 7 No. 2
!!!ODT: 1775///
**kern
*thru
*staff1
*clefG2
*k[f#c#g#]
*A:
*M3/4
*MM104
=1
2a
8.b
16g#
=2
8a
8e
8d#
8e
8d
8c#
=3
2b
8.cc#
16a
=4
8dd
8d
8c#
8d
8c#
8B
=5
4.ee
32ff#
32ee
32dd
32cc#
8dd
8dd
=6
4.cc#
32dd
32cc#
32b
32a
8g#
8g#
=7
4.a
8b
8cc#
8dd
=8
16dd#
16ee
16ff#
16dd
4cc#
4b
=9
4a[
12a]
12e
12cc#
12dd
12b
12g#
=10
8a
8e
8d#
8e
8d
8c#
=11
4b[
12b]
12e
12dd
12cc#
12a
12ff#
=12
8dd
8d
8c#
8d
8c#
8B
=13
4ee[
16ee]
16ee#
16ff#
16cc#
8dd
8dd
=14
4cc#[
16cc#]
16dd#
16ee
16a
8g#
8g#
=15
16a
16b
16cc#
16dd
16ee
16ff#
16gg#
16aa
16gg#
16ff#
16ee
16dd
=16
16cc#
16ee
16dd
16b
4b
4a
=17
4.a
8g#
8a
8g#
=18
8a
8b
8cc#
16ee
16dd
8cc#
8b
=19
4.b
8a#
8b
8a#
=20
8b
8cc#
8dd
16ff#
16ee
8dd
8cc#
=21
32cc#
16.ccc#
4ccc#
32bb
16.aa
32gg#
16.ff#
32ee#
16.ff#
=22
32a
16.aa
4aa
32gg#
16.ff#
32ee
16.dd#
32cc#
16.b
=23
8b
4ee
8b
8cc#
8a
=24
8g#
4b
8a#
8a
8f#
=25
16g#
16b
16cc#
16dd#
16ee
16ff#
16gg#
16aa
16bb
16ccc#
16bb
16gg#
=26
16aa
16bb
16aa
16ff#
16dd#
16ee
16dd#
16b
16a
16b
16a
16f#
=27
16g#
16b
16cc#
16dd#
16ee
16ff#
16gg#
16aa
16bb
16ccc#
16bb
16gg#
=28
16aa
16bb
16aa
16ff#
16dd#
16ee
16dd#
16b
16a
16b
16a
16f#
=29
16g#
16b
16ee
16dd#
16dd#
16cc#
16aa
16gg#
16gg#
16ff#
16ccc#
16bb
=30
16bb
16aa
16gg#
16ff#
4ff#
4ee
=31
2a
16b
16a
16b
16g#
=32
8a
8ee
8dd#
8ee
8dd
8cc#
=33
2b
16cc#
16b
16cc#
16a
=34
8dd
8dd
8cc#
8dd
8cc#
8b
=35
2ee
8dd
8r
=36
2cc#
8b
8r
=37
16.a
32b
16a
16g#
8a
8b
8cc#
8dd
=38
4ee
16ff#
16ee
16dd
16cc#
4b
=39
4a[
16a]
16e
16cc#
16cc#
16cc#
16dd
16b
16g#
=40
8a
8ccc#
8bb#
8ccc#
8bb
8aa
=41
4b[
16b]
16e
16dd
16dd
16dd
16cc#
16ee
16cc#
=42
8b
8bb
8aa#
8bb
8aa
8gg#
=43
4ee[
24ee]
24ff#
24gg#
24aa
24bb
24ccc#
8ddd
16r
16dd
=44
4cc#[
24cc#]
24dd
24ee
24ff#
24gg#
24aa
8bb
16r
16gg#
=45
16bb
8aa
16ee
16gg#
8ff#
16cc#
16ee
8dd
16a
=46
16cc#
8b
16g#
4g#
8a
8e#
=47
4f#
16r
16cc#
16cc#
16cc#
16cc#
16cc#
16cc#
16cc#
=48
4cc#
16r
16cc#
16cc#
16cc#
16cc#
16cc#
16cc#
16cc#
=49
4cc#
16r
16cc#
16cc#
16cc#
16cc#
16cc#
16cc#
16cc#
=50
8.ff#
16dd#
4b
4r
=51
8.aa
16ff#
4b#
8r
8b#
=52
16cc#
16c#
16B#
16c#
16B#
16c#
16B#
16c#
16B#
16c#
16B#
16c#
=53
4.d
8c#
8d
8c#
=54
8d
8e
8f#
16a
16g
8f#
8e
=55
4.e
8d#
8e
8d#
=56
8e
8f#
8g
16b
16a
8g
8f#
=57
32f#
16.ff#
4ff#
32ee
16.dd
32cc#
16.b
32a#
16.b
=58
32d
16.dd
4dd
32cc#
16.b
32a
16.g#
32f#
16.e
=59
8e
4ee
8a
8aa
8dd
=60
8cc#
4ee
8dd#
8dd
8b
=61
16cc#
16ee
16ff#
16gg#
16aa
16bb
16ccc#
16ddd
16eee
16ccc#
16gg#
16aa
=62
16ddd
16bb
16ff#
16gg#
16bb
16gg#
16dd#
16ee
16ff#
16dd
16a#
16b
=63
16cc#
16ee
16ff#
16gg#
16aa
16bb
16ccc#
16ddd
16eee
16ccc#
16gg#
16aa
=64
16ddd
16bb
16ff#
16gg#
16bb
16gg#
16dd#
16ee
16ff#
16dd
16a#
16b
=65
16cc#
16ee
16aa
16gg#
16gg#
16ff#
16ddd
16ccc#
16ccc#
16bb
16bb
16aa
=66
16aa
16gg#
16gg#
16ff#
16ff#
16ee
16ee
16dd#
4r
=67
16ff#
16ee
16ee
16dd#
16ff#
16ee
16ee
16dd
4r
=68
4aa
4ccc
4r
=69
4dd#
4ee
4r
=70
2a
32g#
32e
32b
32g#
32dd
32b
32a
32g#
=71
16a
16e
16d#
16e
16f#
16e
16d#
16e
16d
16c#
16B#
16c#
=72
2b
32cc#
32a
32ee
32cc#
32aa
32ee
32cc#
32a
=73
16dd
16d
16c#
16d
16e
16d
16c#
16d
16c#
16B
16A#
16B
=74
[4ee
8.ee]
16ff#
8ee
8dd
=75
[4cc#
8.cc#]
16ee
8a
8g#
=76
16.a
32b
16.a
32g#
16.a
32e
16.b
32e
16.cc#
32e
16.dd
32e
=77
[4ee
16ee]
32dd#
32ee
32ff#
32ee
32dd
32cc#
8b
8r
=78
24c#
24a
24e
24c#
24a
24e
*Xtuplet
24c#
24a
24e
24c#
24a
24e
24d
24b
24e
24d
24g#
24e
=79
8a
16.r
32g#
8a
16.r
32b
8cc#
8r
=80
*tuplet
24d
24b
24e
24d
24b
24e
*Xtuplet
24d
24b
24e
24d
24g#
24e
24c#
24a
24e
24c#
24cc#
24a
=81
8b
16r
16a
8g#
16r
16a
8dd
8r
=82
16r
16eee
16ddd#
16eee
16r
16aa
16gg#
16aa
16r
16gg#
16bb
16ddd
=83
16r
16ccc#
16bb#
16ccc#
16r
16eee
16ddd#
16eee
16r
16ee
16gg#
16bb
=84
16.aa
64gg#
64aa
16ccc#
32r
32ee
16.ff#
64ee#
64ff#
16aa
32r
32cc#
16.dd
64cc#
64dd
16ff#
32r
32b
=85
*tuplet
24cc#
24a
24ee
24dd
24b
24g#
4g#
8a
8g
=86
8f#
8ff#
8r
16ee
16dd
8r
16cc#
16b
=87
24cc#
24a
24ee
24dd
24b
24g#
4g#
8a
8g
=88
8f#
8ff#
8r
16ee
16dd
8r
16cc#
16b
=89
8r
16a
16g#
4r
4r
=90
16a
16b
16cc#
16dd
16ee
16ff#
16gg#
16aa
16gg#
16ff#
16ee
16dd
=91
16cc#
16ee
16dd
16b
4b
4a
=92
16c#
16e
16d
16B
4B
8A
8r
==
*-
